X:1
T:Jharkhand, CM
T:Jharkhand, CM
T:Anonymous, 1875
T:Public Domain Courtesy of the Cyber Hymnal™
C:Anonymous, 1875
Z:Public Domain
Z:Courtesy of the Cyber Hymnal™
%%score ( 1 2 ) ( 3 4 )
L:1/8
Q:1/4=108
M:4/4
K:Eb
V:1 treble 
V:2 treble 
V:3 bass 
V:4 bass 
V:1
 [EB]4 | E2 [DF]2 [EG]2 ([DF]E) | [DA]2 [EG]2 [DF]2 [FB]2 | [EG]2 [Gc]2 [F=A]3 [FA] | %4
 [FB]2 [FB]2 [Ee]2 [Ac]2 | [GB]2 [Gc]2 [FA]2 [FA]2 | [EG]2 E2 [DA]2 [EG]2 | [EG]2 [DF]2 E4 |] %8
V:2
 x4 | E2 x3 E x2 | x8 | x8 | x8 | x8 | x2 E2 x4 | x4 E4 |] %8
V:3
 [E,G,]4 | [G,B,]2 [F,B,]2 [E,B,]2 B,2 | [F,B,]2 [E,B,]2 [B,,B,]2 [D,B,]2 | %3
 [E,B,]2 [C,E]2 [C,E]3 [C,E] | [B,,D]2 [A,D]2 [G,E]2 [A,E]2 | [E,E]2 [=E,C]2 [F,C]2 [D,B,]2 | %6
 [E,B,]2 [G,B,]2 [F,B,]2 [E,B,]2 | [A,,C]2 (B,A,) [E,G,]4 |] %8
V:4
 x4 | x6 (A,G,) | x8 | x8 | x8 | x8 | x8 | x2 B,,2 x4 |] %8

